svg/汽车-1.svg

<svg width="36" height="36" viewBox="0 0 36 36" fill="none" xmlns="http://www.w3.org/2000/svg"><rect x="-48.3" y="-9.8" width="132.6" height="87.6" rx="11.8" stroke="#DDDDDD" stroke-width="0.4"/><g opacity="0.8"><path d="M39.2292 18.7726H36.3215C36.1841 18.7726 36.0582 18.8069 35.9437 18.8757L34.6387 14.9353C34.2152 12.6902 32.6354 11.6135 30.7008 11.6135H18.3946C16.1623 11.6135 14.8115 13.0682 14.4567 14.9353L13.1402 18.8871C13.0143 18.8184 12.8769 18.7726 12.7395 18.7726H9.83185C9.72882 18.7726 9.62579 18.7955 9.52276 18.8298C9.41973 18.8757 9.3396 18.9329 9.25947 19.0017C9.17934 19.0818 9.1221 19.162 9.08776 19.2651C9.04197 19.3682 9.03052 19.4713 9.03052 19.5744V20.2731C9.03052 20.7198 9.39684 21.0864 9.84329 21.0864L10.9423 21.2697C10.5759 22.0027 10.3813 22.8046 10.3928 23.6293L9.98067 28.2798C9.98067 28.4172 9.98067 28.5547 10.0036 28.6922C9.99211 28.7838 9.98067 28.864 9.98067 28.9556V34.5454C9.98067 35.3472 10.6217 35.9887 11.4231 35.9887H13.621C13.8156 35.9887 13.9988 35.9543 14.1705 35.8856C14.3422 35.8168 14.5025 35.7023 14.6398 35.5763C14.7772 35.4503 14.8802 35.2785 14.9489 35.1067C15.0176 34.9348 15.0634 34.7401 15.0634 34.5568V32.7585H34.0205V34.5568C34.0205 35.3587 34.6616 36.0001 35.4629 36.0001H37.6723C37.8669 36.0001 38.0501 35.9657 38.2218 35.8856C38.3935 35.8168 38.5538 35.7023 38.6912 35.5763C38.8285 35.4503 38.9316 35.2785 39.0002 35.1067C39.0689 34.9348 39.1147 34.7401 39.1147 34.5568V28.9671C39.1147 28.8754 39.1147 28.7952 39.0918 28.7036C39.1033 28.5662 39.1147 28.4287 39.1147 28.2912L38.7026 23.6407C38.7026 22.7358 38.508 21.9569 38.1531 21.2811L39.2292 21.0978C39.3322 21.0978 39.4352 21.0749 39.5383 21.0406C39.6413 20.9947 39.7214 20.9375 39.8016 20.8687C39.8817 20.7886 39.9389 20.7084 39.9733 20.6053C40.0191 20.5022 40.0305 20.3991 40.0305 20.296V19.5973C40.0305 19.3797 39.9389 19.1735 39.7901 19.0246C39.6413 18.8757 39.4352 18.784 39.2177 18.784L39.2292 18.7726Z" fill="#292D32"/><path d="M15.1108 19.8727L16.0957 17.2776V17.2194C16.2012 16.6957 16.424 16.6026 16.7523 16.1953H32.1711C32.4994 16.6143 32.6987 16.719 32.7925 17.2194L33.7891 19.8844L34.1526 21.3274C34.0706 22.3864 32.7808 23.2243 31.7138 23.2243H17.1862C16.1192 23.2243 14.8294 22.3864 14.7473 21.3274L15.1108 19.8844V19.8727Z" fill="#8D8F91"/><path d="M15.803 32.2198C15.4982 32.2198 15.205 32.15 14.9354 32.0336C14.6657 31.9173 14.4195 31.7427 14.2084 31.5216C13.9973 31.3005 13.8449 31.0561 13.7394 30.7768C13.6339 30.4975 13.587 30.2066 13.5987 29.904C13.6104 29.6014 13.6808 29.3105 13.8097 29.0428C13.9387 28.7752 14.1146 28.5308 14.3374 28.333C14.5602 28.1351 14.8181 27.9838 15.1112 27.8908C15.3926 27.7977 15.6975 27.7627 15.9906 27.7744C16.5652 27.8209 17.1163 28.0769 17.5032 28.5075C17.8901 28.9381 18.0895 29.5083 18.066 30.0786C18.0426 30.6604 17.7846 31.1958 17.3625 31.5914C16.9404 31.9871 16.3776 32.2082 15.7913 32.1966L15.803 32.2198Z" fill="#8D8F91"/><path d="M28.3141 30.5906C28.3141 30.7651 28.2437 30.9281 28.1147 31.0561C27.9857 31.1841 27.8216 31.2539 27.6457 31.2539H21.361C21.1851 31.2539 21.0209 31.1841 20.892 31.0561C20.763 30.9281 20.6926 30.7651 20.6926 30.5906V28.7402C20.6926 28.3795 20.9975 28.0769 21.361 28.0769H27.6457C28.0092 28.0769 28.3141 28.3678 28.3141 28.7402V30.5906Z" fill="#8D8F91"/><path d="M33.1079 32.2198C32.8148 32.2198 32.5217 32.1616 32.252 32.0569C31.9823 31.9405 31.7361 31.7776 31.525 31.5797C31.314 31.3703 31.1498 31.1259 31.0443 30.8582C30.927 30.5906 30.8684 30.2996 30.8684 30.0087C30.8684 29.7178 30.927 29.4268 31.0443 29.1592C31.1615 28.8915 31.3257 28.6471 31.525 28.4377C31.7361 28.2282 31.9823 28.0653 32.252 27.9605C32.5217 27.8442 32.8148 27.7976 33.1079 27.7976C33.4011 27.7976 33.6942 27.8558 33.9639 27.9605C34.2336 28.0769 34.4798 28.2398 34.6908 28.4377C34.9019 28.6355 35.0661 28.8915 35.1716 29.1592C35.2888 29.4268 35.3475 29.7178 35.3475 30.0087C35.3475 30.6022 35.113 31.1608 34.6908 31.5797C34.2687 31.9987 33.7059 32.2314 33.1079 32.2314V32.2198Z" fill="#8D8F91"/><path d="M12 0.120117H24C30.5611 0.120117 35.8799 5.43886 35.8799 12V24C35.8799 30.5611 30.5611 35.8799 24 35.8799H12C5.43886 35.8799 0.120117 30.5611 0.120117 24V12C0.120117 5.43886 5.43886 0.120117 12 0.120117Z" stroke="#D1D5DA" stroke-width="0.24"/></g><defs><clipPath id="clip0_1970_14250"></clipPath></defs></svg>

<svg fill="none" viewBox="0 0 36 36"><rect width="132.6" height="87.6" x="-48.3" y="-9.8" stroke="#DDDDDD" stroke-width=".4" rx="11.8"/><g opacity=".8"><path fill="#292D32" d="M39.23 18.773h-2.908a.7.7 0 0 0-.378.103l-1.305-3.94c-.424-2.246-2.004-3.322-3.938-3.322H18.395c-2.233 0-3.583 1.454-3.938 3.321l-1.317 3.952a.85.85 0 0 0-.4-.114H9.832a1 1 0 0 0-.31.057 1 1 0 0 0-.263.172.66.66 0 0 0-.171.263.7.7 0 0 0-.057.31v.698c0 .447.366.813.812.813l1.1.184a5.1 5.1 0 0 0-.55 2.36l-.412 4.65c0 .137 0 .275.023.412-.012.092-.023.172-.023.264v5.59c0 .801.64 1.443 1.442 1.443h2.198q.292 0 .55-.103c.171-.07.332-.184.469-.31s.24-.297.309-.47c.069-.171.114-.366.114-.55V32.76H34.02v1.798c0 .802.642 1.443 1.443 1.443h2.21c.194 0 .377-.034.549-.114.172-.07.332-.184.47-.31.136-.126.24-.297.308-.47.069-.171.115-.366.115-.55v-5.589c0-.092 0-.172-.023-.263.011-.138.023-.275.023-.413l-.412-4.65c0-.905-.195-1.684-.55-2.36l1.076-.183a1 1 0 0 0 .31-.057c.102-.046.182-.104.263-.172.08-.08.137-.16.171-.264a.7.7 0 0 0 .058-.309v-.699a.82.82 0 0 0-.24-.572.82.82 0 0 0-.573-.241z"/><path fill="#8D8F91" d="m15.11 19.873.986-2.595v-.059c.105-.523.328-.616.656-1.024h15.42c.327.42.527.524.62 1.024l.997 2.665.364 1.443c-.082 1.06-1.372 1.897-2.44 1.897H17.187c-1.067 0-2.357-.838-2.439-1.897l.364-1.443z"/><path fill="#8D8F91" d="M15.803 32.22a2.229 2.229 0 0 1-1.595-.698 2.204 2.204 0 0 1-.61-1.618 2.252 2.252 0 0 1 .739-1.571c.223-.198.481-.35.774-.442.282-.093.586-.128.88-.117a2.28 2.28 0 0 1 1.512.733c.387.431.587 1.001.563 1.572a2.2 2.2 0 0 1-.703 1.512 2.23 2.23 0 0 1-1.572.606z"/><path fill="#8D8F91" d="M28.314 30.59a.65.65 0 0 1-.2.466.66.66 0 0 1-.468.198H21.36a.66.66 0 0 1-.469-.198.65.65 0 0 1-.2-.465v-1.85c0-.361.305-.664.669-.664h6.285c.363 0 .668.29.668.663z"/><path fill="#8D8F91" d="M33.108 32.22a2.4 2.4 0 0 1-.856-.163 2.5 2.5 0 0 1-.727-.477 2.1 2.1 0 0 1-.48-.722 2.1 2.1 0 0 1-.177-.85c0-.29.059-.581.176-.849.117-.267.282-.512.481-.721.211-.21.457-.373.727-.477.27-.117.563-.163.856-.163s.586.058.856.163c.27.116.516.279.727.477s.375.454.48.721c.118.268.176.559.176.85a2.235 2.235 0 0 1-2.24 2.223z"/><path stroke="#D1D5DA" stroke-width=".24" d="M12 .12h12C30.561.12 35.88 5.44 35.88 12v12c0 6.561-5.319 11.88-11.88 11.88H12C5.439 35.88.12 30.56.12 24V12C.12 5.439 5.44.12 12 .12Z"/></g></svg>
